X:1
T:The Spike Island Lassies
R:reel
D:Brian Conway, First Through the Gate
Z:Paul Stewart Cranford (P.S.C.), <http://www.cranfordpub.com>
L:1/8
Q:333
M:C|
K:Dmix
TcAGB ADDE|FDFD FGAB|cAGB AGFG|Adde fded|
TcAGB ADDE|FDFD (3EFG AB|cAGB AGFG|Add^c d3e||
||f2 df ef (3gfe|fded ^cAAg|fd ~d2 ed^cd|Add^c d2^cd|
ea{b}ag efge|dfed =cAGc|Add^c d2 fd|Ad ~d2 fded||
||cAGB A2 Ad|(3Bcd BG A2 AB|cAGB AG (3EFG|Adde fded|
cAGB A3 c|BAGF G2 DG|cAGB AGFG|Add^c d3e||
||f2 ad (3fed Ad|fdaf ge^ce|fd ~d2 AdFd|fage d^c A2|
defg {b}agab|agfa g/a/g ag|fd ~d2 ed^ce|d^cde fded|]
